src/shared/assets/svgs/default_profile.svg

<svg width="60" height="60" viewBox="0 0 60 60" fill="none" xmlns="http://www.w3.org/2000/svg">
<path d="M3 30C3 15.0883 15.0883 3 30 3C44.9117 3 57 15.0883 57 30C57 44.9117 44.9117 57 30 57C15.0883 57 3 44.9117 3 30Z" fill="white"/>
<path fill-rule="evenodd" clip-rule="evenodd" d="M30 3C15.0883 3 3 15.0883 3 30C3 39.197 7.59834 47.3199 14.6213 52.1952V49.9869C14.6213 45.1629 17.5407 40.785 21.8996 38.9984C22.5075 38.7483 23.1577 38.8002 23.7564 39.0716C25.9333 40.0557 27.9891 40.5466 30.069 40.5466C32.1561 40.5466 34.2047 40.0817 36.3075 39.1448C36.915 38.8757 37.6272 38.8828 38.2385 39.1448C42.5812 41.0045 45.5167 45.2762 45.5167 49.9869V52.0987C52.4619 47.2132 57 39.1366 57 30C57 15.0883 44.9117 3 30 3ZM19.3745 25.2062C19.3745 19.3415 24.1625 14.5859 30.069 14.5859C35.9755 14.5859 40.7636 19.3415 40.7636 25.2062C40.7636 31.071 35.9755 35.8265 30.069 35.8265C24.1625 35.8265 19.3745 31.071 19.3745 25.2062Z" fill="#868C93"/>
</svg>

<svg xmlns="http://www.w3.org/2000/svg" width="60" height="60" fill="none"><path fill="#fff" d="M3 30C3 15.088 15.088 3 30 3s27 12.088 27 27-12.088 27-27 27S3 44.912 3 30"/><path fill="#868C93" fill-rule="evenodd" d="M30 3C15.088 3 3 15.088 3 30c0 9.197 4.598 17.32 11.621 22.195v-2.208c0-4.824 2.92-9.202 7.279-10.989.608-.25 1.258-.198 1.856.074 2.177.984 4.233 1.475 6.313 1.475 2.087 0 4.136-.465 6.238-1.402a2.44 2.44 0 0 1 1.931 0c4.343 1.86 7.279 6.131 7.279 10.842v2.112C52.462 47.213 57 39.137 57 30 57 15.088 44.912 3 30 3M19.375 25.206c0-5.864 4.788-10.62 10.694-10.62s10.695 4.756 10.695 10.62c0 5.865-4.789 10.62-10.695 10.62s-10.694-4.755-10.694-10.62" clip-rule="evenodd"/></svg>
